X:1
T:Title
L:1/8
Q:1/4=90
M:6/8
K:Bb
V:1 treble nm="Church Organ, Staff"
V:1
 F F2 B d2 | cBA G F2 | FBB BAA | AAA A A2 | FFF B d2 | cBA G c2- | c=BB Bcd | cBA G F2- | %8
w: By~John~B.~Dykes * * *||||||||
 F F2- F/ z/ FF | F F2 z3 | F B2 B A2 | A G2 G F2 | FEE EDC | B, F2 F F2 | F d2 d f2 | f B2 B d2 | %16
w: ||||||||
 dGG A B2 | e d2- ddc | B c2- ccB | A B2- B B2- | B B2- B B2 |] %21
w: |||||

